X:92
T: Der heimkehrende Soldat
N: Q0103I
O: Mitteleuropa, Deutschland (BRD) , Baden
N: Anhaengsel; fuenfte und letzte Zeile = Refrain.
R: Ballade, Ehe, Betrug
M: 4/4
L: 1/16
K: G
D4 | G4G2G2G4G4 | G4B3BA4G4 | A8z4
D4 | A4A2A2A4A4 | A4B3Bc4d4 | B8z4
d2c2 | B4B4B4d4 | d6c2c4
c2B2 | A4A4A4e4 | e6d2d4
c4 | B4B4A4d2c2 | B8z4
d2c2 | B4B4B4d4 | d6c2c4
c2B2 | A4A4A4e4 | e6d2d4
c4 | B4B4A4d2c2 | B8z4

